X:30
T:Phis Fliuch, An
T:Choice Wife, The
E:13.5
R:slip jig
M:9/8
I:speed 325
K:DMix
FGA AFA c3|BAG (4FGAF GED|FGA AFA d2 d|d(3.g.f.e dcA GED:|*
d^cd fge =c2A|d^cd faf ~g3|aba ged c2A|BAG (4FGAF GED:|*
FGA AFd AFd|AFd AFd GED|FGA AFA c3|BAG (4FGAF GED:|*
~D3 ~D3 c3|c2B c2A GED|~D3 ~D3 d3|d(3.g.f.e dcA GED:|*
d^cd fge =c2A|d^cd faf ~g3|aba ged c2A|BAG (4FGAF GED:|**
\vfill
\eject
%%%%%%%%%%%%%%%%%%%%%%%%%%%%%%%%%%%%%%%%%%%%%%%%%%%%%%%%%%%%%%%%%%%%%%
%%%%%%%%%%%%%%%%%%%%%%%%%%%  REELS  %%%%%%%%%%%%%%%%%%%%%%%%%%%%%%%%%%
%%%%%%%%%%%%%%%%%%%%%%%%%%%%%%%%%%%%%%%%%%%%%%%%%%%%%%%%%%%%%%%%%%%%%%
<end>
<start>
